X:1
T:O Holy Bible
T:Isaac Hickman Meredith
T:O Holy Bible
T:Public Domain
T:Public Domain
C:Isaac Hickman Meredith
Z:Public Domain
%%score ( 1 2 ) ( 3 4 )
L:1/8
M:4/4
K:Db
V:1 treble 
V:2 treble 
V:3 bass 
V:4 bass 
V:1
 [FA]4 [=E=G]2 [EB]2 | [FA]4 [DF]4 | D4 [DA]2 [DG]2 | ([DF]4 [CE]2) z2 | [Gc]4 [GB]2 [Gc]2 | %5
w: 1.~Thou “Word In-|car- nate,”|“truth so di-|Thou *|dost il- lu-|
w: 2.~Thou “Bread of|Hea- ven,”|sent from a-|“Gift *|of the Fa-|
w: 3.~Thou art my|“Wis- dom,”|“Trea- sure” com-|“Sweet- *|er than hon-|
 ([Fd]2 [DF]2) [FA]4 | [EA]4 [=Gc]2 [GB]2 | A6 z2 | [Ge]4 [GB]2 [Gc]2 | ([Fd]2 [DF]2) [FA]4 | %10
w: mine * each|path of mine.|Ne-|a sor- row|can * e’er|
w: ther,” * “mess-|age of love.”|“Stream|the way- side,”|spark- * ling|
w: ey,” * “lamp|to my feet.”|Thou|my “Coun- sel,”|“Word * of|
 [Ge]4 [GB]2 [Gc]2 | [Fd]6 z2 | [Bd]4 [Ac]2 [GB]2 | [FA]4 [DF]2 [Fd]2 | (d2 c2) [GB]2 [Gc]2 | %15
w: a- bide, While|in|thy re- fuge|in safe- ty|I * hide. *|
w: and clear, “Fount-|ains|of cleans- ing,”|in thee do|ap- * pear. *|
w: the Lord,” Keep-|ing|thy pre- cepts|brings bless- èd|re- * ward. *|
 [Fd]6 z2 ||"^Refrain" [GA]4 [Ge]2 [Gc]2 | (d2 F2) [FA]4 | [GA]4 [Ge]2 [Gc]2 | [Fd]6 z2 | %20
w: |||||
w: |||||
w: |||||
 [Bd]4 [Ac]2 [GB]2 | [FA]4 [DF]2 [Fd]2 | d2 c2 [GB]2 [Gc]2 | [Fd]6 z2 |] %24
w: ||||
w: ||||
w: ||||
V:2
 x8 | x8 | D4 x4 | x8 | x8 | x8 | x8 | A6 x2 | x8 | x8 | x8 | x8 | x8 | x8 | G4 x4 | x8 || x8 | %17
w: ||vine,”|||||ver||||||||||
w: ||bove,|||||by||||||||||
w: ||plete,|||||art||||||||||
 F4 x4 | x8 | x8 | x8 | x8 | G4 x4 | x8 |] %24
w: |||||||
w: |||||||
w: |||||||
V:3
 (D2 A,2) [D,B,]2 [D,=G,]2 | [D,A,]4 [D,A,]4 | [F,A,]4 [E,B,]2 [E,__B,]2 | (A,4 [A,,A,]2) z2 | %4
w: ~ * ~ ~|~ ~|~ ~ ~|~ *|
 [A,E]4 [A,D]2 [A,E]2 | (D2 A,2) [D,D]4 | [E,C]4 [E,D]2 [E,D]2 | [A,C]6 z2 | [A,C]4 [A,D]2 [A,E]2 | %9
w: ~ ~ ~|~ * ~|~ ~ ~|~|~ ~ ~|
 (D2 A,2) [D,D]4 | [A,C]4 [A,D]2 [A,E]2 | [B,D]6 z2 | [G,D]4 (G,A,)(B,C) | [D,D]4 [D,A,]2 [D,A,]2 | %14
w: ~ * ~|~ ~ ~|~|~ ~ * ~ *|~ O Ho-|
 [E,A,]4 [A,,A,]2 [A,,A,]2 | [D,A,]6 z2 || [A,C]4 [A,C]2 [A,E]2 | (D2 A,2) [D,D]4 | %18
w: ly Bi- ble,|truth|so di- vine,|Trea- * sure|
 [A,C]4 [A,C]2 [A,E]2 | [B,D]6 z2 | [G,D]4 (G,A,)(B,C) | [D,D]4 [D,A,]2 [D,A,]2 | %22
w: Heav- en, I|know|thou art * mine. *||
 [E,A,]4 [A,,A,]2 [A,,A,]2 | [D,A,]6 z2 |] %24
w: ||
V:4
 D,4 x4 | x8 | x8 | A,4 x4 | x8 | D,4 x4 | x8 | x8 | x8 | D,4 x4 | x8 | x8 | x4 G,2 G,2 | x8 | x8 | %15
w: ~|||~||~||||~|||~ ~|||
 x8 || x8 | D,4 x4 | x8 | x8 | x4 G,2 G,2 | x8 | x8 | x8 |] %24
w: ||from|||||||

